src/public/img/history/globalping.svg

<svg width="297" height="60" viewBox="0 0 297 60" fill="none" xmlns="http://www.w3.org/2000/svg">
<g clip-path="url(#clip0_610_48)">
<path d="M23.895 14.0325C24.502 13.2621 25.2864 12.65 26.1811 12.2482C27.0758 11.8464 28.0544 11.667 29.0335 11.7252C30.0126 11.7834 30.9631 12.0775 31.8039 12.5824C32.6447 13.0873 33.351 13.7881 33.8625 14.625C40.2654 12.6843 46.9056 11.6369 53.595 11.5125C50.8841 8.03995 47.4402 5.20861 43.5089 3.22051C39.5777 1.23241 35.2561 0.136582 30.8525 0.0112159C26.4489 -0.11415 22.0719 0.734048 18.0339 2.49527C13.9959 4.25649 10.3965 6.8873 7.49243 10.2C13.083 10.8771 18.5832 12.1622 23.895 14.0325Z" fill="#17D4A7"/>
<path d="M55.3875 14.04L53.6249 14.085C47.1827 14.2123 40.7882 15.2217 34.62 17.085C34.6276 17.2074 34.6276 17.3301 34.62 17.4525C34.6207 18.8377 34.1076 20.1739 33.1799 21.2025C35.1613 23.9462 36.9964 26.7927 38.6775 29.73C39.4125 31.015 40.0925 32.28 40.7175 33.525H41.025C41.8293 33.5176 42.6159 33.7614 43.275 34.2225C48.33 29.9175 52.8149 24.135 56.7299 16.875L56.85 16.6575" fill="#17D4A7"/>
<path d="M31.095 22.695C30.3319 23.0221 29.5101 23.1905 28.6799 23.19C27.833 23.1936 26.9948 23.0192 26.2196 22.6781C25.4444 22.337 24.7494 21.8368 24.1799 21.21C16.6199 25.035 8.71499 31.095 3.35999 40.71C7.00299 42.0953 10.8183 42.976 14.7 43.3275C15.0036 42.7243 15.4702 42.2181 16.0468 41.8665C16.6234 41.5148 17.287 41.3318 17.9624 41.338C18.6377 41.3443 19.2978 41.5396 19.8679 41.9018C20.4379 42.2641 20.895 42.7787 21.1874 43.3875H21.5099C27.1615 42.955 32.6378 41.228 37.5149 38.34C37.3676 37.957 37.2914 37.5504 37.29 37.14C37.2909 36.6631 37.3883 36.1912 37.5765 35.753C37.7647 35.3147 38.0397 34.9191 38.3849 34.59C36.2655 30.4428 33.8283 26.466 31.095 22.695Z" fill="#17D4A7"/>
<path d="M43.5375 56.4525C44.1825 51.3375 43.0275 45.8775 41.0925 40.7025H41.0475C40.3911 40.7033 39.7455 40.5354 39.1725 40.215C33.8475 43.4871 27.8174 45.4388 21.585 45.9075H21.2625C20.9886 46.5741 20.5212 47.1434 19.9207 47.542C19.3203 47.9405 18.6142 48.1501 17.8935 48.1436C17.1728 48.1372 16.4706 47.915 15.8773 47.5058C15.2841 47.0965 14.827 46.5189 14.565 45.8475C10.6704 45.5237 6.83659 44.6812 3.16504 43.3425C4.92927 46.8747 7.3733 50.0239 10.3571 52.6095C13.341 55.1951 16.8059 57.1663 20.5532 58.41C24.3004 59.6538 28.2563 60.1456 32.194 59.8573C36.1318 59.569 39.9738 58.5063 43.5 56.73L43.5375 56.4525Z" fill="#17D4A7"/>
<path d="M58.1324 19.5975C54.6673 25.8953 50.1205 31.5339 44.7 36.255C44.7761 36.5361 44.8139 36.8263 44.8124 37.1175C44.8088 37.6379 44.6916 38.1512 44.4687 38.6215C44.2459 39.0918 43.9229 39.5077 43.5225 39.84C45.615 45.42 46.5224 50.5575 46.2299 55.2075C51.9767 51.5184 56.29 45.9761 58.4548 39.4994C60.6196 33.0227 60.5059 26.0007 58.1324 19.5975Z" fill="#17D4A7"/>
<path d="M22.92 18.9525C22.6817 18.1206 22.6457 17.2437 22.815 16.395C17.2456 14.4556 11.4692 13.1719 5.60254 12.57C2.89773 16.345 1.10809 20.6975 0.375243 25.2833C-0.357602 29.8691 -0.0135583 34.5625 1.38003 38.9925C6.24003 30.495 13.5375 23.7 22.92 18.9525Z" fill="#17D4A7"/>
</g>
<path d="M101.86 29.0283V42.0316C101.348 42.6475 100.56 43.3161 99.4929 44.0372C98.4268 44.7434 97.0514 45.3519 95.3686 45.8627C93.6858 46.3735 91.6506 46.6288 89.2617 46.6288C87.1434 46.6288 85.2127 46.2833 83.47 45.5922C81.7272 44.8861 80.2248 43.8569 78.9628 42.5048C77.7158 41.1526 76.7542 39.5 76.0782 37.5469C75.402 35.5787 75.064 33.3327 75.064 30.8086V28.7578C75.064 26.2337 75.387 23.9877 76.033 22.0195C76.6941 20.0513 77.6331 18.3912 78.8501 17.0391C80.067 15.6869 81.5168 14.6577 83.1995 13.9517C84.8822 13.2455 86.7527 12.8924 88.811 12.8924C91.6656 12.8924 94.0089 13.3582 95.8422 14.2897C97.6754 15.2061 99.072 16.4832 100.034 18.1208C101.01 19.7434 101.611 21.6064 101.837 23.7097H95.2791C95.1138 22.5979 94.7982 21.6289 94.332 20.8025C93.8668 19.9763 93.1985 19.3302 92.3271 18.8645C91.4703 18.3988 90.3584 18.1659 88.9913 18.1659C87.8645 18.1659 86.8578 18.3988 85.9714 18.8645C85.1 19.3152 84.3639 19.9838 83.763 20.8702C83.1619 21.7566 82.7037 22.8533 82.3882 24.1604C82.0727 25.4675 81.915 26.9849 81.915 28.7128V30.8086C81.915 32.5213 82.0802 34.0387 82.4107 35.3609C82.7413 36.6679 83.2296 37.7722 83.8756 38.6737C84.5367 39.5601 85.348 40.2287 86.3095 40.6793C87.271 41.1301 88.3903 41.3555 89.6673 41.3555C90.734 41.3555 91.6205 41.2653 92.3271 41.085C93.048 40.9048 93.6258 40.6869 94.0615 40.4315C94.5129 40.161 94.8582 39.9056 95.0982 39.6653V33.851H88.9237V29.0283H101.86ZM113.758 11.5628V46.1782H107.246V11.5628H113.758ZM118.086 34.2341V33.7608C118.086 31.973 118.34 30.3278 118.852 28.8254C119.362 27.308 120.106 25.9934 121.083 24.8816C122.059 23.7699 123.261 22.906 124.688 22.29C126.115 21.659 127.753 21.3435 129.601 21.3435C131.449 21.3435 133.095 21.659 134.537 22.29C135.979 22.906 137.189 23.7699 138.165 24.8816C139.157 25.9934 139.908 27.308 140.418 28.8254C140.93 30.3278 141.185 31.973 141.185 33.7608V34.2341C141.185 36.0069 140.93 37.652 140.418 39.1695C139.908 40.6719 139.157 41.9865 138.165 43.1133C137.189 44.2251 135.987 45.089 134.559 45.7049C133.132 46.3209 131.494 46.6288 129.646 46.6288C127.798 46.6288 126.153 46.3209 124.711 45.7049C123.283 45.089 122.074 44.2251 121.083 43.1133C120.106 41.9865 119.362 40.6719 118.852 39.1695C118.34 37.652 118.086 36.0069 118.086 34.2341ZM124.576 33.7608V34.2341C124.576 35.2557 124.666 36.2097 124.846 37.0961C125.026 37.9826 125.312 38.7638 125.703 39.4399C126.108 40.1009 126.634 40.6193 127.28 40.9949C127.926 41.3705 128.715 41.5583 129.646 41.5583C130.548 41.5583 131.322 41.3705 131.968 40.9949C132.614 40.6193 133.132 40.1009 133.522 39.4399C133.914 38.7638 134.199 37.9826 134.379 37.0961C134.574 36.2097 134.672 35.2557 134.672 34.2341V33.7608C134.672 32.7692 134.574 31.8377 134.379 30.9664C134.199 30.0799 133.905 29.2986 133.5 28.6226C133.11 27.9315 132.591 27.3906 131.945 27C131.299 26.6093 130.518 26.414 129.601 26.414C128.685 26.414 127.903 26.6093 127.257 27C126.627 27.3906 126.108 27.9315 125.703 28.6226C125.312 29.2986 125.026 30.0799 124.846 30.9664C124.666 31.8377 124.576 32.7692 124.576 33.7608ZM145.173 11.5628H151.664V40.5893L151.011 46.1782H145.173V11.5628ZM167.101 33.7383V34.2115C167.101 36.0294 166.906 37.6971 166.516 39.2145C166.14 40.732 165.554 42.0466 164.757 43.1584C163.962 44.2551 162.969 45.1115 161.783 45.7275C160.611 46.3284 159.229 46.6288 157.636 46.6288C156.149 46.6288 154.856 46.3284 153.76 45.7275C152.678 45.1265 151.77 44.2776 151.033 43.1809C150.297 42.0841 149.704 40.7995 149.252 39.3272C148.802 37.8548 148.464 36.2473 148.239 34.5045V33.4678C148.464 31.725 148.802 30.1175 149.252 28.6451C149.704 27.1728 150.297 25.8882 151.033 24.7914C151.77 23.6947 152.678 22.8459 153.76 22.2449C154.842 21.6439 156.119 21.3435 157.591 21.3435C159.198 21.3435 160.596 21.6514 161.783 22.2674C162.985 22.8684 163.976 23.7247 164.757 24.8365C165.554 25.9333 166.14 27.2404 166.516 28.7578C166.906 30.2602 167.101 31.9204 167.101 33.7383ZM160.611 34.2115V33.7383C160.611 32.7467 160.536 31.8152 160.386 30.9438C160.25 30.0574 160.01 29.2837 159.665 28.6226C159.318 27.9465 158.846 27.4132 158.245 27.0225C157.659 26.6319 156.9 26.4365 155.969 26.4365C155.082 26.4365 154.331 26.5868 153.714 26.8873C153.099 27.1878 152.588 27.6085 152.182 28.1493C151.792 28.6902 151.499 29.3362 151.303 30.0874C151.109 30.8237 150.988 31.6349 150.942 32.5213V35.4736C150.988 36.6605 151.183 37.7121 151.529 38.6286C151.89 39.53 152.43 40.2437 153.151 40.7695C153.888 41.2804 154.842 41.5358 156.014 41.5358C156.93 41.5358 157.688 41.3555 158.289 40.9949C158.891 40.6343 159.356 40.1235 159.687 39.4625C160.032 38.8013 160.273 38.0276 160.408 37.1412C160.543 36.2398 160.611 35.2632 160.611 34.2115ZM184.296 40.6793V29.817C184.296 29.0357 184.169 28.3672 183.913 27.8113C183.658 27.2404 183.259 26.7972 182.718 26.4817C182.193 26.1662 181.509 26.0084 180.668 26.0084C179.946 26.0084 179.323 26.1361 178.797 26.3915C178.272 26.6319 177.866 26.9849 177.581 27.4507C177.295 27.9015 177.152 28.4348 177.152 29.0508H170.662C170.662 28.0141 170.902 27.0301 171.383 26.0985C171.864 25.167 172.563 24.3483 173.479 23.6421C174.395 22.921 175.484 22.3576 176.747 21.9519C178.024 21.5463 179.451 21.3435 181.028 21.3435C182.922 21.3435 184.604 21.659 186.077 22.29C187.549 22.921 188.706 23.8674 189.547 25.1295C190.404 26.3915 190.831 27.969 190.831 29.8621V40.2963C190.831 41.6334 190.914 42.7301 191.08 43.5866C191.245 44.4279 191.485 45.164 191.801 45.795V46.1782H185.243C184.927 45.5171 184.686 44.6908 184.521 43.6992C184.372 42.6926 184.296 41.686 184.296 40.6793ZM185.153 31.3269L185.198 35.0003H181.569C180.713 35.0003 179.97 35.098 179.338 35.2933C178.708 35.4886 178.189 35.7665 177.784 36.1271C177.378 36.4726 177.078 36.8783 176.882 37.3441C176.702 37.8098 176.611 38.3206 176.611 38.8765C176.611 39.4324 176.739 39.9357 176.994 40.3865C177.25 40.8221 177.618 41.1677 178.098 41.4231C178.579 41.6634 179.143 41.7836 179.789 41.7836C180.765 41.7836 181.614 41.5883 182.335 41.1977C183.057 40.8071 183.613 40.3263 184.003 39.7554C184.409 39.1845 184.619 38.6436 184.635 38.1328L186.347 40.8822C186.107 41.4982 185.776 42.1367 185.356 42.7978C184.95 43.4588 184.432 44.0824 183.8 44.6682C183.17 45.2392 182.411 45.7124 181.524 46.088C180.638 46.4486 179.586 46.6288 178.369 46.6288C176.822 46.6288 175.417 46.3209 174.155 45.7049C172.908 45.0739 171.917 44.21 171.18 43.1133C170.459 42.0015 170.098 40.7394 170.098 39.3272C170.098 38.0501 170.339 36.9159 170.82 35.9243C171.301 34.9327 172.006 34.0988 172.938 33.4228C173.885 32.7317 175.064 32.2133 176.477 31.8677C177.889 31.5072 179.526 31.3269 181.389 31.3269H185.153ZM202.686 11.5628V46.1782H196.173V11.5628H202.686ZM214.54 26.4817V55.5532H208.05V21.7942H214.066L214.54 26.4817ZM229.977 33.7157V34.189C229.977 35.9619 229.767 37.607 229.346 39.1244C228.941 40.6418 228.34 41.9639 227.543 43.0907C226.746 44.2025 225.755 45.0739 224.568 45.7049C223.397 46.3209 222.044 46.6288 220.512 46.6288C219.024 46.6288 217.733 46.3284 216.635 45.7275C215.538 45.1265 214.614 44.2852 213.864 43.2034C213.127 42.1067 212.534 40.8371 212.083 39.3948C211.633 37.9525 211.287 36.405 211.047 34.7524V33.5129C211.287 31.7401 211.633 30.1175 212.083 28.6451C212.534 27.1577 213.127 25.8732 213.864 24.7914C214.614 23.6947 215.531 22.8459 216.613 22.2449C217.71 21.6439 218.994 21.3435 220.467 21.3435C222.014 21.3435 223.374 21.6365 224.546 22.2223C225.733 22.8083 226.724 23.6496 227.52 24.7464C228.331 25.8431 228.941 27.1503 229.346 28.6676C229.767 30.1851 229.977 31.8677 229.977 33.7157ZM223.464 34.189V33.7157C223.464 32.679 223.374 31.725 223.194 30.8537C223.028 29.9672 222.758 29.1935 222.382 28.5325C222.021 27.8714 221.541 27.3605 220.94 27C220.354 26.6244 219.641 26.4365 218.799 26.4365C217.913 26.4365 217.154 26.5793 216.522 26.8648C215.907 27.1503 215.404 27.5634 215.013 28.1043C214.622 28.6451 214.329 29.2912 214.134 30.0424C213.939 30.7936 213.819 31.6424 213.774 32.5889V35.7214C213.848 36.8333 214.059 37.8323 214.404 38.7187C214.75 39.5901 215.284 40.2812 216.005 40.7921C216.726 41.3029 217.673 41.5583 218.844 41.5583C219.701 41.5583 220.422 41.3705 221.008 40.9949C221.594 40.6043 222.066 40.0709 222.427 39.3948C222.803 38.7187 223.066 37.9375 223.216 37.0511C223.381 36.1647 223.464 35.2107 223.464 34.189ZM240.862 21.7942V46.1782H234.349V21.7942H240.862ZM233.943 15.439C233.943 14.4925 234.274 13.7112 234.935 13.0952C235.596 12.4793 236.482 12.1712 237.594 12.1712C238.691 12.1712 239.57 12.4793 240.231 13.0952C240.906 13.7112 241.245 14.4925 241.245 15.439C241.245 16.3855 240.906 17.1667 240.231 17.7827C239.57 18.3988 238.691 18.7067 237.594 18.7067C236.482 18.7067 235.596 18.3988 234.935 17.7827C234.274 17.1667 233.943 16.3855 233.943 15.439ZM252.581 27V46.1782H246.09V21.7942H252.174L252.581 27ZM251.634 33.1298H249.876C249.876 31.3269 250.109 29.7043 250.575 28.262C251.041 26.8047 251.694 25.5652 252.535 24.5436C253.377 23.5069 254.376 22.7181 255.533 22.1773C256.705 21.6214 258.012 21.3435 259.454 21.3435C260.596 21.3435 261.64 21.5087 262.587 21.8393C263.533 22.1698 264.344 22.6956 265.02 23.4168C265.711 24.1379 266.238 25.0919 266.598 26.2789C266.973 27.4658 267.162 28.9156 267.162 30.6283V46.1782H260.626V30.6057C260.626 29.5241 260.476 28.6827 260.175 28.0817C259.875 27.4807 259.432 27.0601 258.846 26.8197C258.275 26.5643 257.569 26.4365 256.727 26.4365C255.856 26.4365 255.097 26.6093 254.451 26.9549C253.82 27.3005 253.294 27.7813 252.873 28.3973C252.468 28.9982 252.16 29.7043 251.949 30.5156C251.739 31.3269 251.634 32.1983 251.634 33.1298ZM287.534 21.7942H293.416V45.3669C293.416 47.5904 292.92 49.476 291.929 51.0234C290.952 52.5859 289.585 53.7653 287.826 54.5616C286.069 55.3729 284.026 55.7786 281.697 55.7786C280.675 55.7786 279.594 55.6433 278.452 55.3729C277.326 55.1024 276.244 54.6818 275.207 54.1108C274.185 53.5399 273.329 52.8188 272.637 51.9474L275.5 48.1163C276.251 48.9877 277.122 49.6637 278.114 50.1445C279.105 50.6404 280.202 50.8882 281.404 50.8882C282.576 50.8882 283.567 50.6704 284.379 50.2347C285.19 49.814 285.814 49.1905 286.25 48.3641C286.686 47.5529 286.903 46.5688 286.903 45.412V27.4282L287.534 21.7942ZM271.128 34.2791V33.8058C271.128 31.9429 271.353 30.2527 271.804 28.7353C272.27 27.2028 272.923 25.8882 273.764 24.7914C274.621 23.6947 275.658 22.8459 276.874 22.2449C278.092 21.6439 279.466 21.3435 280.998 21.3435C282.621 21.3435 283.981 21.6439 285.078 22.2449C286.174 22.8459 287.076 23.7022 287.782 24.814C288.488 25.9108 289.037 27.2104 289.427 28.7128C289.832 30.2001 290.148 31.8302 290.373 33.603V34.6397C290.148 36.3375 289.81 37.9149 289.36 39.3723C288.908 40.8296 288.315 42.1067 287.579 43.2034C286.842 44.2852 285.927 45.1265 284.829 45.7275C283.748 46.3284 282.456 46.6288 280.953 46.6288C279.451 46.6288 278.092 46.3209 276.874 45.7049C275.672 45.089 274.643 44.2251 273.787 43.1133C272.931 42.0015 272.27 40.6944 271.804 39.192C271.353 37.6896 271.128 36.052 271.128 34.2791ZM277.618 33.8058V34.2791C277.618 35.2857 277.716 36.2248 277.911 37.0961C278.106 37.9675 278.406 38.7413 278.813 39.4173C279.234 40.0784 279.751 40.5967 280.367 40.9723C280.998 41.3329 281.742 41.5132 282.598 41.5132C283.785 41.5132 284.754 41.2653 285.506 40.7695C286.257 40.2587 286.82 39.5601 287.196 38.6737C287.572 37.7873 287.79 36.7656 287.85 35.6088V32.6565C287.819 31.71 287.692 30.8611 287.466 30.1099C287.241 29.3438 286.926 28.6902 286.519 28.1493C286.114 27.6085 285.588 27.1878 284.943 26.8873C284.297 26.5868 283.53 26.4365 282.643 26.4365C281.788 26.4365 281.044 26.6319 280.412 27.0225C279.797 27.3981 279.278 27.9164 278.858 28.5775C278.452 29.2385 278.144 30.0198 277.934 30.9212C277.723 31.8077 277.618 32.7692 277.618 33.8058Z" fill="#212121"/>
<defs>
<clipPath id="clip0_610_48">
<rect width="60" height="60" fill="white"/>
</clipPath>
</defs>
</svg>

<svg xmlns="http://www.w3.org/2000/svg" width="297" height="60" fill="none">
  <g fill="#17D4A7" clip-path="url(#a)">
    <path d="M23.895 14.033a6.083 6.083 0 0 1 9.967.592 72.687 72.687 0 0 1 19.733-3.113A29.932 29.932 0 0 0 7.492 10.2a77.415 77.415 0 0 1 16.403 3.833Zm31.493.007-1.763.045a70.54 70.54 0 0 0-19.005 3c.008.122.008.245 0 .367a5.595 5.595 0 0 1-1.44 3.75 96.105 96.105 0 0 1 5.498 8.528 79.38 79.38 0 0 1 2.04 3.795h.307a3.863 3.863 0 0 1 2.25.697c5.055-4.305 9.54-10.087 13.455-17.347l.12-.218m-25.755 6.038a6.121 6.121 0 0 1-2.415.495 6.045 6.045 0 0 1-4.5-1.98c-7.56 3.825-15.465 9.885-20.82 19.5a42.752 42.752 0 0 0 11.34 2.617 3.615 3.615 0 0 1 6.487.06h.323a36.944 36.944 0 0 0 16.005-5.047 3.375 3.375 0 0 1-.225-1.2 3.532 3.532 0 0 1 1.095-2.55 90.243 90.243 0 0 0-7.29-11.895Z"/>
    <path d="M43.538 56.453c.645-5.116-.51-10.576-2.445-15.75h-.046a3.832 3.832 0 0 1-1.874-.488 39.21 39.21 0 0 1-17.588 5.692h-.323a3.608 3.608 0 0 1-6.697-.06 43.897 43.897 0 0 1-11.4-2.505A30 30 0 0 0 43.5 56.73l.038-.277Zm14.594-36.855A61.236 61.236 0 0 1 44.7 36.255c.076.281.114.571.112.862a3.57 3.57 0 0 1-1.29 2.723c2.093 5.58 3 10.717 2.708 15.367a29.947 29.947 0 0 0 11.902-35.61Zm-35.212-.645a5.43 5.43 0 0 1-.105-2.558A75.894 75.894 0 0 0 5.603 12.57 29.94 29.94 0 0 0 1.38 38.992c4.86-8.497 12.158-15.292 21.54-20.04Z"/>
  </g>
  <path fill="#212121" d="M101.86 29.028v13.004c-.512.616-1.3 1.284-2.367 2.005-1.066.706-2.442 1.315-4.124 1.826-1.683.51-3.718.766-6.107.766-2.119 0-4.05-.346-5.792-1.037a12.515 12.515 0 0 1-4.507-3.087c-1.247-1.352-2.209-3.005-2.885-4.958-.676-1.968-1.014-4.214-1.014-6.738v-2.051c0-2.524.323-4.77.969-6.738.661-1.969 1.6-3.629 2.817-4.98a12.054 12.054 0 0 1 4.35-3.088c1.682-.707 3.553-1.06 5.611-1.06 2.855 0 5.198.466 7.031 1.398 1.833.916 3.23 2.193 4.192 3.83.976 1.623 1.577 3.486 1.803 5.59h-6.558c-.165-1.112-.48-2.081-.947-2.908a4.887 4.887 0 0 0-2.005-1.938c-.857-.465-1.969-.698-3.336-.698-1.126 0-2.133.233-3.02.698-.871.451-1.607 1.12-2.208 2.006-.601.887-1.06 1.983-1.375 3.29-.315 1.308-.473 2.825-.473 4.553v2.096c0 1.712.165 3.23.496 4.552.33 1.307.819 2.411 1.465 3.313a6.385 6.385 0 0 0 2.433 2.005c.962.451 2.081.676 3.358.676 1.067 0 1.954-.09 2.66-.27.721-.18 1.299-.398 1.734-.654.452-.27.797-.525 1.037-.766v-5.814h-6.174v-4.823h12.936Zm11.898-17.465v34.615h-6.512V11.563h6.512Zm4.328 22.671v-.473c0-1.788.254-3.433.766-4.936.51-1.517 1.254-2.832 2.231-3.943.976-1.112 2.178-1.976 3.605-2.592 1.427-.631 3.065-.947 4.913-.947 1.848 0 3.494.316 4.936.947 1.442.616 2.652 1.48 3.628 2.592.992 1.111 1.743 2.426 2.253 3.943.512 1.503.767 3.148.767 4.936v.473c0 1.773-.255 3.418-.767 4.935-.51 1.503-1.261 2.818-2.253 3.944-.976 1.112-2.178 1.976-3.606 2.592-1.427.616-3.065.924-4.913.924-1.848 0-3.493-.308-4.935-.924-1.428-.616-2.637-1.48-3.628-2.592-.977-1.127-1.721-2.441-2.231-3.944-.512-1.517-.766-3.162-.766-4.935Zm6.49-.473v.473c0 1.022.09 1.976.27 2.862.18.887.466 1.668.857 2.344a4.46 4.46 0 0 0 1.577 1.555c.646.376 1.435.563 2.366.563.902 0 1.676-.188 2.322-.563a4.28 4.28 0 0 0 1.554-1.555c.392-.676.677-1.457.857-2.344.195-.886.293-1.84.293-2.862v-.473c0-.992-.098-1.923-.293-2.795-.18-.886-.474-1.667-.879-2.343A4.36 4.36 0 0 0 131.945 27c-.646-.39-1.427-.586-2.344-.586-.916 0-1.698.195-2.344.586a4.61 4.61 0 0 0-1.554 1.623c-.391.676-.677 1.457-.857 2.343a13.8 13.8 0 0 0-.27 2.795Zm20.597-22.198h6.491v29.026l-.653 5.59h-5.838V11.562Zm21.928 22.175v.474c0 1.817-.195 3.485-.585 5.002-.376 1.518-.962 2.833-1.759 3.944a8.428 8.428 0 0 1-2.974 2.57c-1.172.6-2.554.9-4.147.9-1.487 0-2.78-.3-3.876-.9-1.082-.602-1.99-1.45-2.727-2.547-.736-1.097-1.329-2.381-1.781-3.854-.45-1.472-.788-3.08-1.013-4.822v-1.037c.225-1.743.563-3.35 1.013-4.823.452-1.472 1.045-2.757 1.781-3.854.737-1.096 1.645-1.945 2.727-2.546 1.082-.601 2.359-.902 3.831-.902 1.607 0 3.005.308 4.192.924a7.904 7.904 0 0 1 2.974 2.57c.797 1.096 1.383 2.403 1.759 3.92.39 1.503.585 3.163.585 4.981Zm-6.49.474v-.474c0-.991-.075-1.923-.225-2.794-.136-.887-.376-1.66-.721-2.321a4.091 4.091 0 0 0-1.42-1.6c-.586-.391-1.345-.587-2.276-.587-.887 0-1.638.15-2.255.451-.615.3-1.126.721-1.532 1.262-.39.541-.683 1.187-.879 1.938a11.996 11.996 0 0 0-.361 2.434v2.953c.046 1.187.241 2.238.587 3.155.361.901.901 1.615 1.622 2.14.737.511 1.691.767 2.863.767.916 0 1.674-.18 2.275-.541a3.637 3.637 0 0 0 1.398-1.532c.345-.662.586-1.435.721-2.322.135-.901.203-1.878.203-2.93Zm23.685 6.467V29.817c0-.781-.127-1.45-.383-2.006a2.85 2.85 0 0 0-1.195-1.33c-.525-.315-1.209-.473-2.05-.473-.722 0-1.345.128-1.871.384-.525.24-.931.593-1.216 1.059-.286.45-.429.984-.429 1.6h-6.49c0-1.037.24-2.02.721-2.952.481-.932 1.18-1.75 2.096-2.457.916-.721 2.005-1.284 3.268-1.69 1.277-.406 2.704-.609 4.281-.609 1.894 0 3.576.316 5.049.947 1.472.631 2.629 1.577 3.47 2.84.857 1.262 1.284 2.839 1.284 4.732v10.434c0 1.337.083 2.434.249 3.29.165.842.405 1.578.721 2.209v.383h-6.558c-.316-.66-.557-1.487-.722-2.479a20.599 20.599 0 0 1-.225-3.02Zm.857-9.352.045 3.673h-3.629c-.856 0-1.599.098-2.231.293-.63.196-1.149.474-1.554.834a3.227 3.227 0 0 0-.902 1.217c-.18.466-.271.977-.271 1.532 0 .556.128 1.06.383 1.51.256.436.624.782 1.104 1.037.481.24 1.045.36 1.691.36.976 0 1.825-.195 2.546-.585.722-.39 1.278-.872 1.668-1.443.406-.57.616-1.111.632-1.622l1.712 2.75c-.24.615-.571 1.254-.991 1.915a8.93 8.93 0 0 1-1.556 1.87c-.63.571-1.389 1.044-2.276 1.42-.886.36-1.938.54-3.155.54-1.547 0-2.952-.307-4.214-.923-1.247-.631-2.238-1.495-2.975-2.592-.721-1.111-1.082-2.374-1.082-3.786 0-1.277.241-2.411.722-3.403a6.635 6.635 0 0 1 2.118-2.501c.947-.691 2.126-1.21 3.539-1.555 1.412-.36 3.049-.541 4.912-.541h3.764Zm17.533-19.764v34.615h-6.513V11.563h6.513Zm11.854 14.919v29.071h-6.49V21.794h6.016l.474 4.688Zm15.437 7.234v.473c0 1.773-.21 3.418-.631 4.935-.405 1.518-1.006 2.84-1.803 3.967a8.567 8.567 0 0 1-2.975 2.614c-1.171.616-2.524.924-4.056.924-1.488 0-2.779-.3-3.877-.901-1.097-.602-2.021-1.443-2.771-2.525-.737-1.096-1.33-2.366-1.781-3.808a30.103 30.103 0 0 1-1.036-4.643v-1.24c.24-1.772.586-3.395 1.036-4.867.451-1.487 1.044-2.772 1.781-3.854.75-1.096 1.667-1.945 2.749-2.546 1.097-.601 2.381-.902 3.854-.902 1.547 0 2.907.294 4.079.88a8.015 8.015 0 0 1 2.974 2.523c.811 1.097 1.421 2.404 1.826 3.922.421 1.517.631 3.2.631 5.048Zm-6.513.473v-.473c0-1.037-.09-1.991-.27-2.862-.166-.887-.436-1.66-.812-2.322-.361-.66-.841-1.172-1.442-1.532-.586-.376-1.299-.564-2.141-.564-.886 0-1.645.143-2.277.429a3.807 3.807 0 0 0-1.509 1.24c-.391.54-.684 1.186-.879 1.937-.195.752-.315 1.6-.36 2.547v3.132c.074 1.112.285 2.111.63 2.998.346.871.88 1.562 1.601 2.073.721.51 1.668.766 2.839.766.857 0 1.578-.188 2.164-.563.586-.39 1.058-.924 1.419-1.6.376-.676.639-1.458.789-2.344.165-.886.248-1.84.248-2.862Zm17.398-12.395v24.384h-6.513V21.794h6.513Zm-6.919-6.355c0-.947.331-1.728.992-2.344.661-.616 1.547-.924 2.659-.924 1.097 0 1.976.308 2.637.924.675.616 1.014 1.397 1.014 2.344 0 .947-.339 1.728-1.014 2.344-.661.616-1.54.924-2.637.924-1.112 0-1.998-.308-2.659-.924-.661-.616-.992-1.398-.992-2.344ZM252.581 27v19.178h-6.491V21.794h6.084l.407 5.206Zm-.947 6.13h-1.758c0-1.803.233-3.426.699-4.868.466-1.457 1.119-2.697 1.96-3.718a8.429 8.429 0 0 1 2.998-2.367c1.172-.556 2.479-.834 3.921-.834 1.142 0 2.186.166 3.133.496a5.99 5.99 0 0 1 2.433 1.578c.691.72 1.218 1.675 1.578 2.862.375 1.187.564 2.637.564 4.35v15.55h-6.536V30.605c0-1.082-.15-1.923-.451-2.524-.3-.601-.743-1.022-1.329-1.262-.571-.256-1.277-.384-2.119-.384-.871 0-1.63.173-2.276.519a4.528 4.528 0 0 0-1.578 1.442c-.405.601-.713 1.307-.924 2.119-.21.81-.315 1.682-.315 2.614Zm35.9-11.336h5.882v23.573c0 2.223-.496 4.109-1.487 5.656-.977 1.563-2.344 2.742-4.103 3.539-1.757.81-3.8 1.217-6.129 1.217-1.022 0-2.103-.136-3.245-.406a12.997 12.997 0 0 1-3.245-1.262 8.584 8.584 0 0 1-2.57-2.164l2.863-3.83a8.08 8.08 0 0 0 2.614 2.028c.991.495 2.088.743 3.29.743 1.172 0 2.163-.218 2.975-.653a4.33 4.33 0 0 0 1.871-1.87c.436-.812.653-1.796.653-2.953V27.428l.631-5.634ZM271.128 34.28v-.473c0-1.863.225-3.553.676-5.07.466-1.533 1.119-2.848 1.96-3.945a8.929 8.929 0 0 1 3.11-2.546c1.218-.601 2.592-.902 4.124-.902 1.623 0 2.983.3 4.08.902 1.096.6 1.998 1.457 2.704 2.569.706 1.097 1.255 2.396 1.645 3.899.405 1.487.721 3.117.946 4.89v1.037a28.909 28.909 0 0 1-1.013 4.732c-.452 1.458-1.045 2.735-1.781 3.831-.737 1.082-1.652 1.923-2.75 2.524-1.081.601-2.373.902-3.876.902-1.502 0-2.861-.308-4.079-.924a9.104 9.104 0 0 1-3.087-2.592c-.856-1.111-1.517-2.419-1.983-3.921-.451-1.502-.676-3.14-.676-4.913Zm6.49-.473v.473c0 1.007.098 1.946.293 2.817.195.872.495 1.645.902 2.321.421.661.938 1.18 1.554 1.555.631.36 1.375.541 2.231.541 1.187 0 2.156-.248 2.908-.743.751-.511 1.314-1.21 1.69-2.096.376-.887.594-1.908.654-3.065v-2.953c-.031-.946-.158-1.795-.384-2.546-.225-.766-.54-1.42-.947-1.96a4.088 4.088 0 0 0-1.576-1.263c-.646-.3-1.413-.45-2.3-.45-.855 0-1.599.195-2.231.585a4.803 4.803 0 0 0-1.554 1.556c-.406.66-.714 1.442-.924 2.343a12.444 12.444 0 0 0-.316 2.885Z"/>
  <defs>
    <clipPath id="a">
      <path fill="#fff" d="M0 0h60v60H0z"/>
    </clipPath>
  </defs>
</svg>
